src/assets/images/prototype/produits-labellises/7-degraissant.svg

<svg width="326" height="714" viewBox="0 0 326 714" fill="none" xmlns="http://www.w3.org/2000/svg">
<mask id="mask0_1119_336" style="mask-type:alpha" maskUnits="userSpaceOnUse" x="0" y="0" width="326" height="714">
<rect width="326" height="714" fill="#D9D9D9"/>
</mask>
<g mask="url(#mask0_1119_336)">
<path d="M125.177 203.204C125.235 186.727 140.836 171.582 148.629 166.068L219.865 166.318C228.131 181.524 248.773 216.646 257.218 235.465C267.773 258.989 292.802 355.192 304.787 437.619C316.772 520.046 303.982 667.065 291.655 682.198C279.327 697.331 223.256 702.554 179.483 700.955C135.71 699.356 69.0103 702.013 42.4454 693.609C15.8805 685.205 9.0219 541.007 24.7721 483.249C40.5223 425.49 134.293 287.066 138.861 267.931C143.429 248.796 125.105 223.8 125.177 203.204Z" fill="white" stroke="#81EC40" stroke-width="5"/>
<path d="M148.979 107.746L148.776 165.582L218.901 165.828L219.104 107.992L185.849 107.875L148.979 107.746Z" fill="white" stroke="#81EC40" stroke-width="5"/>
<path d="M111.494 76.8876C124.777 82.4287 141.776 100.249 148.615 108.467L218.741 108.713C219.601 104.137 223.274 94.197 231.093 91.0435C240.867 87.1015 255.66 95.1059 265.482 77.4281C275.303 59.7502 248.969 44.4755 205.294 26.2483C170.354 11.6666 110.007 19.8893 84.2005 25.8234L84.0318 73.8994C91.6227 73.9261 98.2107 71.3466 111.494 76.8876Z" fill="white" stroke="#81EC40" stroke-width="5"/>
<path d="M83.5596 26.4599C74.8749 29.0803 57.6402 37.141 58.179 48.421C58.7178 59.7011 75.2123 70.29 83.3921 74.1745" stroke="#81EC40" stroke-width="5"/>
<path d="M109.332 108.478C118.511 103.415 127.579 94.211 130.967 90.2421C117.17 75.5443 103.065 73.0709 97.7367 73.6715C96.6637 75.8793 94.2483 81.1962 93.1704 84.8017C91.8231 89.3085 56.0007 128.46 50.6421 137.73C45.2834 147 42.3476 148.847 50.5946 151.264C58.8415 153.682 69.8177 137.266 79.7016 128.543C89.5855 119.82 97.8585 114.807 109.332 108.478Z" fill="white" stroke="#81EC40" stroke-width="5"/>
</g>
</svg>

<svg width="326" height="714" fill="none" xmlns="http://www.w3.org/2000/svg"><mask id="a" style="mask-type:alpha" maskUnits="userSpaceOnUse" x="0" y="0" width="326" height="714"><path fill="#D9D9D9" d="M0 0h326v714H0z"/></mask><g mask="url(#a)" stroke="#81EC40" stroke-width="5"><path d="M125.177 203.204c.058-16.477 15.659-31.622 23.452-37.136l71.236.25c8.266 15.206 28.908 50.328 37.353 69.147 10.555 23.524 35.584 119.727 47.569 202.154 11.985 82.427-.805 229.446-13.132 244.579-12.328 15.133-68.399 20.356-112.172 18.757-43.773-1.599-110.473 1.058-137.038-7.346-26.565-8.404-33.423-152.602-17.673-210.36 15.75-57.759 109.521-196.183 114.089-215.318 4.568-19.135-13.756-44.131-13.684-64.727zm23.802-95.458l-.203 57.836 70.125.246.203-57.836-33.255-.117-36.87-.129z" fill="#fff"/><path d="M111.494 76.888c13.283 5.54 30.282 23.361 37.121 31.579l70.126.246c.86-4.576 4.533-14.516 12.352-17.67 9.774-3.942 24.567 4.063 34.389-13.615 9.821-17.678-16.513-32.953-60.188-51.18-34.94-14.581-95.287-6.359-121.094-.425L84.032 73.9c7.59.027 14.179-2.552 27.462 2.989z" fill="#fff"/><path d="M83.56 26.46c-8.685 2.62-25.92 10.68-25.381 21.96.539 11.28 17.033 21.869 25.213 25.753"/><path d="M109.332 108.478c9.179-5.063 18.247-14.267 21.635-18.236-13.797-14.698-27.902-17.171-33.23-16.57-1.073 2.207-3.489 7.524-4.567 11.13C91.823 89.308 56 128.46 50.642 137.73c-5.359 9.27-8.294 11.117-.047 13.534 8.247 2.418 19.223-13.998 29.107-22.721 9.883-8.723 18.157-13.736 29.63-20.065z" fill="#fff"/></g></svg>
